src/assets/icons/marketplace-icon.svg

<svg width="24" height="24" viewBox="0 0 24 24" fill="none" xmlns="http://www.w3.org/2000/svg">
<path d="M18.1881 17.8335C16.6522 17.8335 15.3857 19.073 15.3857 20.6358C15.3857 22.1717 16.6252 23.4382 18.1881 23.4382C19.724 23.4382 20.9904 22.1987 20.9904 20.6358C20.9635 19.0999 19.724 17.8335 18.1881 17.8335Z" fill="#32324D"/>
<path d="M23.1194 3.90712C23.0655 3.90712 22.9846 3.88017 22.9038 3.88017H5.92804L5.65859 2.07482C5.49691 0.889207 4.47298 0 3.26042 0H1.07783C0.485022 0 0 0.485022 0 1.07783C0 1.67063 0.485022 2.15565 1.07783 2.15565H3.26042C3.39515 2.15565 3.50294 2.26343 3.52988 2.39816L5.20051 13.7692C5.41608 15.1973 6.65558 16.2752 8.11064 16.2752H19.32C20.7212 16.2752 21.9338 15.2782 22.2302 13.904L23.9816 5.14662C24.0894 4.58076 23.7122 4.0149 23.1194 3.90712Z" fill="#32324D"/>
<path d="M11.3174 20.5011C11.2635 19.0191 10.024 17.8335 8.54204 17.8335C6.97919 17.9143 5.79358 19.2077 5.84747 20.7436C5.90136 22.2256 7.11392 23.4112 8.59593 23.4112H8.64982C10.1857 23.3304 11.3983 22.037 11.3174 20.5011Z" fill="#32324D"/>
</svg>

<svg width="24" height="24" fill="none" xmlns="http://www.w3.org/2000/svg"><path d="M18.188 17.834a2.8 2.8 0 00-2.802 2.802 2.8 2.8 0 002.802 2.802 2.8 2.8 0 002.802-2.802c-.026-1.536-1.266-2.802-2.802-2.802zM23.12 3.907c-.055 0-.135-.027-.216-.027H5.928l-.27-1.805A2.413 2.413 0 003.26 0H1.078C.485 0 0 .485 0 1.078c0 .593.485 1.078 1.078 1.078H3.26c.135 0 .243.107.27.242L5.2 13.77a2.954 2.954 0 002.91 2.506h11.21c1.401 0 2.614-.997 2.91-2.371l1.752-8.757a1.065 1.065 0 00-.863-1.24zM11.317 20.501a2.786 2.786 0 00-2.775-2.668 2.818 2.818 0 00-2.695 2.91 2.762 2.762 0 002.749 2.668h.054c1.536-.08 2.748-1.374 2.667-2.91z" fill="#32324D"/></svg>
